X:1
T:Title
%%score { 1 | 2 }
L:1/8
Q:1/4=100
M:6/8
K:Bb
V:1 treble nm="Grand Piano"
V:2 bass 
V:1
 [DF][B,D][CE] [DF]2 [EG] | [DF]3 [DB]2 [DFB] | BAB c2 A | [DB]6 | [DF][B,D][CE] [DF]2 [EG] | %5
w: George~Stebbins * * * *|||||
 [DF]3 .[DB]3 | [FA][Fc][DFB] [CFA]2 [B,=EG] | F6 | FGF c2 B | B3 A2 B | BAB [=Ed]2 [Ec] | [Fc]6 | %12
w: |||||||
 [Fd][Ge][Fd] [Fd][Ec][DB] | B3 G2 G | FFF F2 F | [DF]6 |] %16
w: ||||
V:2
 [B,,F,][B,,F,][B,,F,] [B,,B,]2 [B,,B,] | [B,,B,]3 [B,,B,]2 B,, | %2
 [F,DF][F,CE][F,B,D] [F,A,E]2 [F,C] | [B,,F,]6 | [B,,F,][B,,F,][B,,F,] [B,,B,]2 [B,,B,] | %5
 [B,,B,]3 .[B,,F,]3 | [C,C][C,A,]C, C,2 C, | [F,A,]6 | [F,A,E][F,B,E][F,A,E] [F,A,E]2 [F,B,D] | %9
 [F,DF]3 [F,CF]2 [B,DF] | [G,DG][G,CG][G,DG][K:bass] [C,B,]2 [C,B,] | [F,A,]6 | %12
 [B,,B,][B,,B,][B,,B,] [B,,_A,]2 [B,,A,] | [E,G,E]3 [E,B,E]2 [E,B,E] | %14
 [F,B,D][F,B,D][F,B,D] [F,A,C]2 [F,CE] | [B,,B,]6 |] %16

